src/assets/img/values/illo-clipboard.svg

<svg fill="none" height="128" viewBox="0 0 128 128" width="128" xmlns="http://www.w3.org/2000/svg"><path d="m79.647 107.934c.5523.539 1.1335 1.047 1.741 1.523.823.667 1.418 1.148 1.418 1.6v.041l.03.029c.1144.114.251.204.4013.263.1503.06.3111.088.4727.083.845 0 1.993-.672 3.267-1.946l.023-.027c1.653-3.3 15.108-16.657 15.91-16.744l.045-.011c.372-.1762.682-.4606.89-.816s.304-.7653.275-1.176c-.068-.5184-.292-1.0041-.64-1.3938-.349-.3896-.807-.665-1.315-.7902l-2.359-2.359c-.0011-.1159-.0255-.2305-.0716-.3368-.0462-.1064-.1132-.2024-.1971-.2824s-.183-.1423-.2915-.1833c-.1084-.0411-.224-.0599-.3398-.0555-1.2 0-4.929 4.5-6.474 6.433-3.674 4.083-5.608 5.986-7.353 6.47-1.709.478-3.248-.437-6.117-2.486-2.361-1.574-4.8-3.2-6.432-3.217-.68-.337-1.126-.415-1.4-.245-.323.2-.323.68-.323 1.145-.1294.8026-.387 1.5792-.763 2.3-.837.042-.837.921-.837 1.7-.001 1.737 5.738 8.124 10.44 10.482zm-7.84-11.259c.0762-.1632.1874-.3076.3256-.4231.1383-.1154.3002-.199.4744-.2449 1.158-.312 3.331.656 7.024 3.115 1.669 1.67 3.28 2.43 4.07 2.43 1.575 0 4.725-2.283 8.88-6.44 1.4755-1.9572 3.0719-3.8202 4.78-5.578 1.171-.576 2.781-.273 3.136.221.024.0321.042.0687.052.1077s.011.0795.005.1193c-.006.0397-.02.0778-.041.112s-.049.0638-.082.087l-.03.029v.042c0 .819-3.835 5.526-7.17 9.529l-7.971 7.971c-.7225.029-1.4429-.096-2.1133-.367-.6704-.27-1.2754-.681-1.7747-1.204-.6177-.495-1.2992-.905-2.026-1.219-.7069-.305-1.3706-.702-1.974-1.181l-.039-.024c-2.301-.769-5.496-5.451-5.526-7.082z" fill="#4ade80"/><path d="m65.3 56.751h9.518c.012.0484.037.0926.0722.1278s.0794.0602.1278.0722c.0349.0091.0709.0135.107.013.3094-.0631.6025-.1896.8606-.3715.2582-.1819.4759-.4153.6394-.6855.1034-.1357.1555-.3037.1469-.4741s-.0773-.3323-.1939-.4569l-.023-.023h-.031c-3.1825-.4952-6.3964-.7626-9.617-.8-3.062 0-10.189.1-10.221 1.065-.029.833 5.384 1.318 8.614 1.533z" fill="#facc15"/><path d="m33.206 49.464c0 4 0 4.834 4.83 9.658.5116.5201 1.1232.9312 1.7979 1.2085.6747.2774 1.3986.4153 2.1281.4055.3128-.0004.6253-.0228.935-.067 3.7-.518 7.826-3.961 10.5-8.78.7072-1.5472 1.0051-3.2501.865-4.9455s-.7134-3.3264-1.665-4.7365c-.393-.786-1.735-1.255-3.59-1.255-1.8531.0045-3.682.4201-5.355 1.217-2.405 1.6-3.139 1.547-3.889.8-2.435-1.624-4.094-1.62-5.726.012l-.019.026c-.5787.9599-.9499 2.0304-1.0897 3.1425-.1399 1.1121-.0453 2.2412.2777 3.3145zm14.618 7.108c-.3424.2456-.6687.5128-.977.8-.9494.5466-2.0321.818-3.127.784-5.485-.784-6.314-2.3-6.314-7.1 0-.789-.778-2.446-1.657-2.5-.1706-.1327-.3081-.3031-.4018-.4978-.0937-.1948-.141-.4086-.1383-.6247.0027-.216.0554-.4286.154-.6209.0985-.1923.2403-.3592.4141-.4876l.024-.039c.349-1.045.853-1.64 1.46-1.721.7-.1 1.543.521 2.355 1.734.4 1.18 1.011 1.856 1.69 1.856s1.3-.681 1.69-1.856c.48-.96 2.37-2.139 4.212-2.629.5947-.2104 1.2267-.2947 1.8558-.2476.6291.0472 1.2415.2248 1.7982.5216.706.353 1.144 1.814 1.144 3.811.022 1.9383-.3787 3.8582-1.174 5.626-1.607.813-1.626 1.639-1.626 1.674 0 .48-.706 1.007-1.382 1.517z" fill="#f87171"/><g fill="#facc15"><path d="m50.9 97.753c-1.767.2-3.594.4-4.789.4-3.167 0-4.829.023-5.033.516-.0225.0764-.0216.1577.0025.2336.024.0759.0702.1429.1325.1924.082.823 2.575.858 8.1.858 5.239 0 8.7 0 8.7.7-.0112.19.023.381.1.555.0293.062.0755.114.1334.151s.125.057.1936.057c.561 0 1.357-1.205 1.368-2.339.3-.6.352-.946.194-1.2-.323-.523-1.486-.523-4.294-.523-1.208-.002-3.04.201-4.808.399z"/><path d="m45.215 94.116c.512.071 1.071.148 1.677.235h8.814c.874 0 2.5 0 2.5-.9 0-.673-1.24-.826-4.235-1.195-1.042-.128-2.339-.288-3.865-.505h-8.841l-.029.029c-.512.512-.689.852-.593 1.139.199.593 1.569.781 4.572 1.197z"/><path d="m52.268 79.071-2.156-.119h-.006c-9.7 0-12.968 0-13.311.828-.126.3.147.645.413.914.0048.0872.0296.1722.0724.2483s.1026.1413.1746.1907c.545.393 1.955.254 3.868-.381h11.177c5.28.407 8.441.6 10.313.6 1.51 0 2.182-.127 2.449-.374.0462-.041.083-.0913.108-.1477.0251-.0565.0377-.1176.037-.1793-.001-.851-.494-.879-13.139-1.58z"/><path d="m63.507 50.664c1.179 0 2.47-.051 3.441-.109 2.916-.175 6.577-.586 8.106-1.22.506-.21.752-.433.752-.683 0-.88-1.475-.9-6.92-.9h-.386l-1.843.183c-4.762.467-6.543.642-6.779 1.3-.1.271.07.6.561 1.086.9876.3267 2.0326.4435 3.068.343z"/><path d="m40.2708 103.036c1.6996 0 3.5606.052 4.9603.111 4.2034.178 9.4808.596 11.6849 1.242.7294.213 1.084.44 1.084.695 0 .896-2.1262.916-9.9753.916h-.5564l-2.6567-.186c-6.8645-.476-9.4318-.654-9.772-1.324-.1442-.276.1009-.61.8087-1.105 1.4237-.333 2.93-.452 4.4225-.349z"/><path d="m60.445 46.352h.061c2.4221-.0548 4.8348-.3225 7.21-.8h7.15c.0782.0711.1732.121.2761.1452.1029.0241.2102.0216.3119-.0072.2345-.0713.4458-.2039.612-.384.592-.592 1.073-1.763.511-2.325l-.029-.029h-.042c-1.6394-.0128-3.2687.2578-4.816.8h-7.184c-2.5 0-3.8.3-4.228.988-.1147.2489-.1622.5235-.1378.7965s.1198.5348.2768.7595z"/><path d="m58.5715 88h-.0841c-3.3373-.0483-6.6615-.2845-9.9342-.7058h-9.8516c-.1078.0627-.2387.1068-.3804.1281-.1418.0213-.2897.0191-.4298-.0063-.3231-.063-.6141-.1799-.8432-.3388-.8157-.5223-1.4784-1.5554-.7041-2.0512l.04-.0256h.0579c2.2588-.0113 4.5038.2275 6.6356.7058h9.8985c3.4446 0 5.2358.2646 5.8255.8716.158.2196.2234.4619.1898.7027-.0336.2409-.1651.4719-.3813.6701z"/><path d="m52.284 62.194c0 .662 4.934.958 9.822.958 3.4656.0141 6.9257.2791 10.353.793.3543.2531.787.3722 1.221.336.6897-.0104 1.3717-.146 2.013-.4.572-.237.895-.522.913-.806.0513-.092.0775-.1959.0759-.3012s-.0309-.2084-.0849-.2988c-.694-1.124-5.879-1.124-15.291-1.124-2.824 0-5.159.079-6.754.229-2.268.214-2.268.494-2.268.614z"/><path d="m69.323 68.553c-4.2453-.597-8.5304-.8644-12.817-.8-1.506 0-3.547-.178-5.707-.367-2.441-.212-4.965-.432-7.064-.432h-.015c-3.984-.569-5.547-.734-6.162-.2-.135.1468-.2364.3213-.2972.5112-.0608.19-.0795.3909-.0548.5888 0 1.207 1.884 1.7 6.5 1.7 19.583 0 28.606.69 31.156 2.389.4965.2933 1.0504.4761 1.624.536.1614.0048.3208-.0361.46-.118.314-.194.46-.61.46-1.307 0-1.516-1.308-1.674-6.175-2.265-.584-.072-1.22-.1507-1.908-.236z"/><path d="m59.706 73.352h-.006c-4.7115.4238-9.4496.4666-14.168.128-1.359-.069-2.534-.128-3.4-.129-3.133-1.042-5.589-1.169-6.117-.315-.149.241-.2.66.43 1.285.564.565 3.19.736 7.956 1.045 2.213.144 4.967.323 8.114.585 13.538 0 17.624 0 19.245-.811l.026-.019c.411-.41.548-.7.445-.952-.348-.817-3.416-.817-12.525-.817z"/></g><path d="m110.157 104.947c3.884-10.121 2.1-18.539-5.8-27.313l-.018-.019c-3.335-3.335-5.546-5.545-7.432-5.832l-.956-.956c.213-1.146-.094-3.394-.856-8.71-.484-3.368-1.085-7.558-1.693-12.715-.014-1.721-.787-7.129-1.605-12.848l-.84-10.081-3.652-1.826c-1.791-.895-4.325-.895-6-.895h-1.361l.653-4.573.009-.127c0-4.123-.077-6.458-1.653-6.5-1.015-.082-10.222-.8-20.847-.8-2.208 0-4.214-.007-6.036-.012h-.178c-1.517-.005-2.905-.01-4.175-.01-8.181 0-11.676.164-13.311 1.8-1.216 1.219-1.21 2.959-1.2 5.593v.726c0 3.9-.728 3.9-1.5 3.9-1.665 0-4.182 0-5.963.876l-4.464 1.785-.866 6.927-.007 21.712c0 8.882 0 19.936-.791 25.474l-.007.066c-.863 12.945-1.573 24.9-.8 28.945.151 1.116.5488 2.183 1.1645 3.126.6157.942 1.4337 1.736 2.3945 2.322l2.555 2.555 25.956.811h.022c14.025 0 23.314 0 24.9.474l.064.063c1.111 1.111 6.608 2.756 10.06 3.446.9757.208 1.9695.319 2.967.332 2.226 0 3.9-.674 6.442-1.7l.7-.284c7.802-3.455 11.759-7.87 14.124-15.732zm-87.152-71.479.79-4.74 2.356-.787c1.579-.789 3.972-.789 5.58-.792.4583-.1354.9385-.1805 1.414-.133.193.034.434.119.487.332.13.519-.853 1.533-2.745 2.006-4.049.809-4.079 2.4-4.862 43.147l-.019.951c0 20.332 0 29.612.8 32.819l.814 4.071 6.462.807c7.083 1.574 21.342.876 28.022-.8 2.363 0 3.159 0 4.73 1.57l.025.019c.7009.389 1.3341.889 1.875 1.481.519.52.929.93 1.37.93h.927c-2.243.3-11.445.6-39.318.6-.51-.085-.984-.161-1.426-.232-3.707-.594-5.1-.817-6.512-2.939-2.371-2.371-2.371-2.371-2.371-12.729 0-5.735 0-13.588.8-16.8 0-1.567.121-4.183.273-7.5.235-5.109.527-11.468.527-17.3zm11.1 2.7c.6.65 2.92.57 11.541.269 3.767-.131 8.926-.311 15.665-.488l1.2-.057c15.547-.74 16.478-.784 18.066-2.373l.023-.019c.759-1.52 1.462-1.52 2.221 0l.019.025c.937.938 1.69 5.493 2.371 14.341.5839 6.1171.8509 12.2603.8 18.405l.784 4.7-3.913.783c-5.4945 1.6569-10.4708 4.6986-14.451 8.833l-3.17 3.963-2.261 1.95-.99 3.718c-1.607 3.215-1.605 4.048 0 8.845l.786 6.288-.106 2.66c-.7112.238-1.4406.419-2.181.539-.538 0-1.5.087-2.824.208-2.594.235-6.514.592-10.776.592-10.079 0-16.738 0-17.523-1.563-.336-.567-.578-16.021-.577-36.747 0-17.234.189-36.339.59-37.545.643-1.286 1.443-1.983 2.269-1.983.0541 0 .1082.003.162.009.948.1 1.784 1.159 2.179 2.729-.0031.2732-.0221.546-.057.817-.052.469-.096.838.148 1.104zm42.4-3.619h-.041l-.029.029c-.771.771-9.689.771-19.13.771-8.145 0-15.345.493-18.42.7-.848.058-1.409.1-1.58.1l-.045.01c-.46.23-.711.282-.863.177-.541-.369-.328-2.989.208-8.878v-.009c0-4.828 0-10.3.7-10.3h.041l.029-.029c.924-.745 38.325-.751 39.83-.019-.0109 2.9344.257 5.8632.8 8.747.001 8.091-.033 8.704-1.499 8.704zm6.425-5.4c.4452-.1471.9175-.1936 1.3828-.1362s.9121.2173 1.3082.4682c1.371.939 2.256 3.349 2.787 7.595 1.423 5.69 2.225 14.693 2.933 22.636.089 1 .177 1.983.264 2.94.0592 1.5894.2461 3.1715.559 4.731.1135.551.194 1.1084.241 1.669 0 1.562 0 2.351-.759 3.118-.978.487-1.556.616-1.875.419-.246-.152-.366-.524-.366-1.137-.0465-.5711-.1279-1.1389-.244-1.7-.3111-1.5492-.497-3.121-.556-4.7v-.032c-.835-2.5-1.595-9.734-1.595-15.173l-.031-.6c-.769-14.606-.814-15.48-4.013-17.078-1.247-.832-1.908-1.722-1.726-2.323.135-.447.729-.694 1.67-.694zm-12.753 55.173c5.643-5.643 8.876-7.2 15.14-8.771 1.3226-.1602 2.6529-.2476 3.985-.262 4.491 0 7.474 1.374 11.929 5.829 5.4 6.175 7.975 10.254 7.976 16.726-.862 10.339-5.269 17.78-12.746 21.518h-.006c-3.419 2.052-7.718 2.556-13.524 1.589-3.147-.787-5.434-2.29-11.166-6.384-5.515-3.94-7.151-7.05-7.959-15.132-.763-6.098.606-9.348 6.371-15.113z" fill="#7e22ce"/></svg>

<svg width="128" height="128" viewBox="0 0 128 128" fill="none" xmlns="http://www.w3.org/2000/svg">
<path d="M79.647 107.934C80.1993 108.473 80.7805 108.981 81.388 109.457C82.211 110.124 82.806 110.605 82.806 111.057V111.098L82.836 111.127C82.9504 111.241 83.087 111.331 83.2373 111.39C83.3876 111.45 83.5484 111.478 83.71 111.473C84.555 111.473 85.703 110.801 86.977 109.527L87 109.5C88.653 106.2 102.108 92.843 102.91 92.756L102.955 92.745C103.327 92.5688 103.637 92.2844 103.845 91.929C104.053 91.5736 104.149 91.1637 104.12 90.753C104.052 90.2346 103.828 89.7489 103.48 89.3592C103.131 88.9696 102.673 88.6942 102.165 88.569L99.806 86.21C99.8049 86.0941 99.7805 85.9795 99.7344 85.8732C99.6882 85.7668 99.6212 85.6708 99.5373 85.5908C99.4534 85.5108 99.3543 85.4485 99.2458 85.4075C99.1374 85.3664 99.0218 85.3476 98.906 85.352C97.706 85.352 93.977 89.852 92.432 91.785C88.758 95.868 86.824 97.771 85.079 98.255C83.37 98.733 81.831 97.818 78.962 95.769C76.601 94.195 74.162 92.569 72.53 92.552C71.85 92.215 71.404 92.137 71.13 92.307C70.807 92.507 70.807 92.987 70.807 93.452C70.6776 94.2546 70.42 95.0312 70.044 95.752C69.207 95.794 69.207 96.673 69.207 97.452C69.206 99.189 74.945 105.576 79.647 107.934ZM71.807 96.675C71.8832 96.5118 71.9944 96.3674 72.1326 96.2519C72.2709 96.1365 72.4328 96.0529 72.607 96.007C73.765 95.695 75.938 96.663 79.631 99.122C81.3 100.792 82.911 101.552 83.701 101.552C85.276 101.552 88.426 99.269 92.581 95.112C94.0565 93.1548 95.6529 91.2918 97.361 89.534C98.532 88.958 100.142 89.261 100.497 89.755C100.521 89.7871 100.539 89.8237 100.549 89.8627C100.559 89.9017 100.56 89.9422 100.554 89.982C100.548 90.0217 100.534 90.0598 100.513 90.094C100.492 90.1282 100.464 90.1578 100.431 90.181L100.401 90.21V90.252C100.401 91.071 96.566 95.778 93.231 99.781L85.26 107.752C84.5375 107.781 83.8171 107.656 83.1467 107.385C82.4763 107.115 81.8713 106.704 81.372 106.181C80.7543 105.686 80.0728 105.276 79.346 104.962C78.6391 104.657 77.9754 104.26 77.372 103.781L77.333 103.757C75.032 102.988 71.837 98.306 71.807 96.675Z" fill="#4ADE80"/>
<path d="M65.3 56.751H74.818C74.83 56.7994 74.855 56.8436 74.8902 56.8788C74.9254 56.914 74.9696 56.939 75.018 56.951C75.0529 56.9601 75.0889 56.9645 75.125 56.964C75.4344 56.9009 75.7275 56.7744 75.9856 56.5925C76.2438 56.4106 76.4615 56.1772 76.625 55.907C76.7284 55.7713 76.7805 55.6033 76.7719 55.4329C76.7633 55.2625 76.6946 55.1006 76.578 54.976L76.555 54.953H76.524C73.3415 54.4578 70.1276 54.1904 66.907 54.153C63.845 54.153 56.718 54.253 56.686 55.218C56.657 56.051 62.07 56.536 65.3 56.751Z" fill="#FACC15"/>
<path d="M33.206 49.464C33.206 53.464 33.206 54.298 38.036 59.122C38.5476 59.6421 39.1592 60.0532 39.8339 60.3305C40.5086 60.6079 41.2325 60.7458 41.962 60.736C42.2748 60.7356 42.5873 60.7132 42.897 60.669C46.597 60.151 50.723 56.708 53.397 51.889C54.1042 50.3418 54.4021 48.6389 54.262 46.9435C54.1219 45.2481 53.5486 43.6171 52.597 42.207C52.204 41.421 50.862 40.952 49.007 40.952C47.1539 40.9565 45.325 41.3721 43.652 42.169C41.247 43.769 40.513 43.716 39.763 42.969C37.328 41.345 35.669 41.349 34.037 42.981L34.018 43.007C33.4393 43.9669 33.0681 45.0374 32.9283 46.1495C32.7884 47.2616 32.883 48.3907 33.206 49.464V49.464ZM47.824 56.572C47.4816 56.8176 47.1553 57.0848 46.847 57.372C45.8976 57.9186 44.8149 58.19 43.72 58.156C38.235 57.372 37.406 55.856 37.406 51.056C37.406 50.267 36.628 48.61 35.749 48.556C35.5784 48.4233 35.4409 48.2529 35.3472 48.0582C35.2535 47.8634 35.2062 47.6496 35.2089 47.4335C35.2116 47.2175 35.2643 47.0049 35.3629 46.8126C35.4614 46.6203 35.6032 46.4534 35.777 46.325L35.801 46.286C36.15 45.241 36.654 44.646 37.261 44.565C37.961 44.465 38.804 45.086 39.616 46.299C40.016 47.479 40.627 48.155 41.306 48.155C41.985 48.155 42.606 47.474 42.996 46.299C43.476 45.339 45.366 44.16 47.208 43.67C47.8027 43.4596 48.4347 43.3753 49.0638 43.4224C49.6929 43.4696 50.3053 43.6472 50.862 43.944C51.568 44.297 52.006 45.758 52.006 47.755C52.028 49.6933 51.6273 51.6132 50.832 53.381C49.225 54.194 49.206 55.02 49.206 55.055C49.206 55.535 48.5 56.062 47.824 56.572V56.572Z" fill="#F87171"/>
<path d="M50.9 97.753C49.133 97.953 47.306 98.153 46.111 98.153C42.944 98.153 41.282 98.176 41.078 98.669C41.0555 98.7454 41.0564 98.8267 41.0805 98.9026C41.1045 98.9785 41.1507 99.0455 41.213 99.095C41.295 99.918 43.788 99.953 49.313 99.953C54.552 99.953 58.013 99.953 58.013 100.653C58.0018 100.843 58.036 101.034 58.113 101.208C58.1423 101.27 58.1885 101.322 58.2464 101.359C58.3043 101.396 58.3714 101.416 58.44 101.416C59.001 101.416 59.797 100.211 59.808 99.077C60.108 98.477 60.16 98.131 60.002 97.877C59.679 97.354 58.516 97.354 55.708 97.354C54.5 97.352 52.668 97.555 50.9 97.753Z" fill="#FACC15"/>
<path d="M45.215 94.116C45.727 94.187 46.286 94.264 46.892 94.351H55.706C56.58 94.351 58.206 94.351 58.206 93.451C58.206 92.778 56.966 92.625 53.971 92.256C52.929 92.128 51.632 91.968 50.106 91.751H41.265L41.236 91.78C40.724 92.292 40.547 92.632 40.643 92.919C40.842 93.512 42.212 93.7 45.215 94.116Z" fill="#FACC15"/>
<path d="M52.268 79.071L50.112 78.952H50.106C40.406 78.952 37.138 78.952 36.795 79.78C36.669 80.08 36.942 80.425 37.208 80.694C37.2128 80.7812 37.2376 80.8662 37.2804 80.9423C37.3232 81.0184 37.383 81.0836 37.455 81.133C38 81.526 39.41 81.387 41.323 80.752H52.5C57.78 81.159 60.941 81.352 62.813 81.352C64.323 81.352 64.995 81.225 65.262 80.978C65.3082 80.937 65.345 80.8867 65.37 80.8303C65.3951 80.7738 65.4077 80.7127 65.407 80.651C65.406 79.8 64.913 79.772 52.268 79.071Z" fill="#FACC15"/>
<path d="M63.507 50.664C64.686 50.664 65.977 50.613 66.948 50.555C69.864 50.38 73.525 49.969 75.054 49.335C75.56 49.125 75.806 48.902 75.806 48.652C75.806 47.772 74.331 47.752 68.886 47.752H68.5L66.657 47.935C61.895 48.402 60.114 48.577 59.878 49.235C59.778 49.506 59.948 49.835 60.439 50.321C61.4266 50.6477 62.4716 50.7645 63.507 50.664V50.664Z" fill="#FACC15"/>
<path d="M40.2708 103.036C41.9704 103.036 43.8314 103.088 45.2311 103.147C49.4345 103.325 54.7119 103.743 56.916 104.389C57.6454 104.602 58 104.829 58 105.084C58 105.98 55.8738 106 48.0247 106H47.4683L44.8116 105.814C37.9471 105.338 35.3798 105.16 35.0396 104.49C34.8954 104.214 35.1405 103.88 35.8483 103.385C37.272 103.052 38.7783 102.933 40.2708 103.036V103.036Z" fill="#FACC15"/>
<path d="M60.445 46.352H60.506C62.9281 46.2972 65.3408 46.0295 67.716 45.552H74.866C74.9442 45.6231 75.0392 45.673 75.1421 45.6972C75.245 45.7213 75.3523 45.7188 75.454 45.69C75.6885 45.6187 75.8998 45.4861 76.066 45.306C76.658 44.714 77.139 43.543 76.577 42.981L76.548 42.952H76.506C74.8666 42.9392 73.2373 43.2098 71.69 43.752H64.506C62.006 43.752 60.706 44.052 60.278 44.74C60.1633 44.9889 60.1158 45.2635 60.1402 45.5365C60.1646 45.8095 60.26 46.0713 60.417 46.296L60.445 46.352Z" fill="#FACC15"/>
<path d="M58.5715 88H58.4874C55.1501 87.9517 51.8259 87.7155 48.5532 87.2942H38.7016C38.5938 87.3569 38.4629 87.401 38.3212 87.4223C38.1794 87.4436 38.0315 87.4414 37.8914 87.416C37.5683 87.353 37.2773 87.2361 37.0482 87.0772C36.2325 86.5549 35.5698 85.5218 36.3441 85.026L36.3841 85.0004H36.442C38.7008 84.9891 40.9458 85.2279 43.0776 85.7062H52.9761C56.4207 85.7062 58.2119 85.9708 58.8016 86.5778C58.9596 86.7974 59.025 87.0397 58.9914 87.2805C58.9578 87.5214 58.8263 87.7524 58.6101 87.9506L58.5715 88Z" fill="#FACC15"/>
<path d="M52.284 62.194C52.284 62.856 57.218 63.152 62.106 63.152C65.5716 63.1661 69.0317 63.4311 72.459 63.945C72.8133 64.1981 73.246 64.3172 73.68 64.281C74.3697 64.2706 75.0517 64.135 75.693 63.881C76.265 63.644 76.588 63.359 76.606 63.075C76.6573 62.983 76.6835 62.8791 76.6819 62.7738C76.6803 62.6685 76.651 62.5654 76.597 62.475C75.903 61.351 70.718 61.351 61.306 61.351C58.482 61.351 56.147 61.43 54.552 61.58C52.284 61.794 52.284 62.074 52.284 62.194Z" fill="#FACC15"/>
<path d="M69.323 68.553C65.0777 67.956 60.7926 67.6886 56.506 67.753C55 67.753 52.959 67.575 50.799 67.386C48.358 67.174 45.834 66.954 43.735 66.954H43.72C39.736 66.385 38.173 66.22 37.558 66.754C37.423 66.9008 37.3216 67.0753 37.2608 67.2652C37.2 67.4552 37.1813 67.6561 37.206 67.854C37.206 69.061 39.09 69.554 43.706 69.554C63.289 69.554 72.312 70.244 74.862 71.943C75.3585 72.2363 75.9124 72.4191 76.486 72.479C76.6474 72.4838 76.8068 72.4429 76.946 72.361C77.26 72.167 77.406 71.751 77.406 71.054C77.406 69.538 76.098 69.38 71.231 68.789C70.647 68.717 70.011 68.6383 69.323 68.553Z" fill="#FACC15"/>
<path d="M59.706 73.352H59.7C54.9885 73.7758 50.2504 73.8186 45.532 73.48C44.173 73.411 42.998 73.352 42.132 73.351C38.999 72.309 36.543 72.182 36.015 73.036C35.866 73.277 35.815 73.696 36.445 74.321C37.009 74.886 39.635 75.057 44.401 75.366C46.614 75.51 49.368 75.689 52.515 75.951C66.053 75.951 70.139 75.951 71.76 75.14L71.786 75.121C72.197 74.711 72.334 74.421 72.231 74.169C71.883 73.352 68.815 73.352 59.706 73.352Z" fill="#FACC15"/>
<path d="M110.157 104.947C114.041 94.826 112.257 86.408 104.357 77.634L104.339 77.615C101.004 74.28 98.793 72.07 96.907 71.783L95.951 70.827C96.164 69.681 95.857 67.433 95.095 62.117C94.611 58.749 94.01 54.559 93.402 49.402C93.388 47.681 92.615 42.273 91.797 36.554L90.957 26.473L87.305 24.647C85.514 23.752 82.98 23.752 81.305 23.752H79.944L80.597 19.179L80.606 19.052C80.606 14.929 80.529 12.594 78.953 12.552C77.938 12.47 68.731 11.752 58.106 11.752C55.898 11.752 53.892 11.745 52.07 11.74H51.892C50.375 11.735 48.987 11.73 47.717 11.73C39.536 11.73 36.041 11.894 34.406 13.53C33.19 14.749 33.196 16.489 33.206 19.123V19.849C33.206 23.749 32.478 23.749 31.706 23.749C30.041 23.749 27.524 23.749 25.743 24.625L21.279 26.41L20.413 33.337L20.406 55.049C20.406 63.931 20.406 74.985 19.615 80.523L19.608 80.589C18.745 93.534 18.035 105.489 18.808 109.534C18.959 110.65 19.3568 111.717 19.9725 112.66C20.5882 113.602 21.4062 114.396 22.367 114.982L24.922 117.537L50.878 118.348H50.9C64.925 118.348 74.214 118.348 75.8 118.822L75.864 118.885C76.975 119.996 82.472 121.641 85.924 122.331C86.8997 122.539 87.8935 122.65 88.891 122.663C91.117 122.663 92.791 121.989 95.333 120.963L96.033 120.679C103.835 117.224 107.792 112.809 110.157 104.947ZM23.005 33.468L23.795 28.728L26.151 27.941C27.73 27.152 30.123 27.152 31.731 27.149C32.1893 27.0136 32.6695 26.9685 33.145 27.016C33.338 27.05 33.579 27.135 33.632 27.348C33.762 27.867 32.779 28.881 30.887 29.354C26.838 30.163 26.808 31.754 26.025 72.501L26.006 73.452C26.006 93.784 26.006 103.064 26.806 106.271L27.62 110.342L34.082 111.149C41.165 112.723 55.424 112.025 62.104 110.349C64.467 110.349 65.263 110.349 66.834 111.919L66.859 111.938C67.5599 112.327 68.1931 112.827 68.734 113.419C69.253 113.939 69.663 114.349 70.104 114.349H71.031C68.788 114.649 59.586 114.949 31.713 114.949C31.203 114.864 30.729 114.788 30.287 114.717C26.58 114.123 25.187 113.9 23.775 111.778C21.404 109.407 21.404 109.407 21.404 99.049C21.404 93.314 21.404 85.461 22.204 82.249C22.204 80.682 22.325 78.066 22.477 74.749C22.712 69.64 23.004 63.281 23.004 57.449L23.005 33.468ZM34.105 36.168C34.705 36.818 37.025 36.738 45.646 36.437C49.413 36.306 54.572 36.126 61.311 35.949L62.511 35.892C78.058 35.152 78.989 35.108 80.577 33.519L80.6 33.5C81.359 31.98 82.062 31.98 82.821 33.5L82.84 33.525C83.777 34.463 84.53 39.018 85.211 47.866C85.7949 53.9831 86.0619 60.1263 86.011 66.271L86.795 70.971L82.882 71.754C77.3875 73.4109 72.4112 76.4526 68.431 80.587L65.261 84.55L63 86.5L62.01 90.218C60.403 93.433 60.405 94.266 62.01 99.063L62.796 105.351L62.69 108.011C61.9788 108.249 61.2494 108.43 60.509 108.55C59.971 108.55 59.009 108.637 57.685 108.758C55.091 108.993 51.171 109.35 46.909 109.35C36.83 109.35 30.171 109.35 29.386 107.787C29.05 107.22 28.808 91.766 28.809 71.04C28.809 53.806 28.998 34.701 29.399 33.495C30.042 32.209 30.842 31.512 31.668 31.512C31.7221 31.512 31.7762 31.515 31.83 31.521C32.778 31.621 33.614 32.68 34.009 34.25C34.0059 34.5232 33.9869 34.796 33.952 35.067C33.9 35.536 33.856 35.905 34.1 36.171L34.105 36.168ZM76.505 32.549H76.464L76.435 32.578C75.664 33.349 66.746 33.349 57.305 33.349C49.16 33.349 41.96 33.842 38.885 34.049C38.037 34.107 37.476 34.149 37.305 34.149L37.26 34.159C36.8 34.389 36.549 34.441 36.397 34.336C35.856 33.967 36.069 31.347 36.605 25.458V25.449C36.605 20.621 36.605 15.149 37.305 15.149H37.346L37.375 15.12C38.299 14.375 75.7 14.369 77.205 15.101C77.1941 18.0354 77.462 20.9642 78.005 23.848C78.006 31.939 77.972 32.552 76.506 32.552L76.505 32.549ZM82.93 27.149C83.3752 27.0019 83.8475 26.9554 84.3128 27.0128C84.7781 27.0702 85.2249 27.2301 85.621 27.481C86.992 28.42 87.877 30.83 88.408 35.076C89.831 40.766 90.633 49.769 91.341 57.712C91.43 58.712 91.518 59.695 91.605 60.652C91.6642 62.2414 91.8511 63.8235 92.164 65.383C92.2775 65.934 92.358 66.4914 92.405 67.052C92.405 68.614 92.405 69.403 91.646 70.17C90.668 70.657 90.09 70.786 89.771 70.589C89.525 70.437 89.405 70.065 89.405 69.452C89.3585 68.8809 89.2771 68.3131 89.161 67.752C88.8499 66.2028 88.664 64.631 88.605 63.052V63.02C87.77 60.52 87.01 53.286 87.01 47.847L86.979 47.247C86.21 32.641 86.165 31.767 82.966 30.169C81.719 29.337 81.058 28.447 81.24 27.846C81.375 27.399 81.969 27.152 82.91 27.152L82.93 27.149ZM70.177 82.322C75.82 76.679 79.053 75.122 85.317 73.551C86.6396 73.3908 87.9699 73.3034 89.302 73.289C93.793 73.289 96.776 74.663 101.231 79.118C106.631 85.293 109.206 89.372 109.207 95.844C108.345 106.183 103.938 113.624 96.461 117.362H96.455C93.036 119.414 88.737 119.918 82.931 118.951C79.784 118.164 77.497 116.661 71.765 112.567C66.25 108.627 64.614 105.517 63.806 97.435C63.043 91.337 64.412 88.087 70.177 82.322Z" fill="#7E22CE"/>
</svg>
